X:55
T: Xiu zhanbu
N: C1553
O: China,Jilin, Changchun
S: III, 164]
R: Xiaodiao. Fun qing]
M: 4/4
L: 1/16
K: G
B4e4e8 | d4B2A2A8 | B4e6d2d2B2 | A4
A3GE3DC2D2 | E4B4A2c2A2G2 | E6D2E8 |
e4B4e8 | g4B2A2A8 | B2d2e2e2e2d4B2 | A4
A2G2E2D2C2D2 | E4B4A2c2A2G2 | E6D2E8 |
E2E4G2A8 | A4e4c4B2A2 | A4E4-E2D4B,2 | E2D2C2B,2A,8 |
E6G2A8 | c2c4d2c2A2G2E2 | A2A2G2E2D8 |
E2D2E2G2A8 | c2d2e2e2-e2d2-d2B2 | A4
A2G2E2D2C2D2 | E4d2B2A2c2A2G2 | E6D2E8

@@@ Tune index: 6610
